X:7209
T:The Pipe on the Hob
O:england
M:6/8
L:1/8
Q:180
C:Trad Irish
R:jig
K:A dor
B|c3 edc|edc BAG|ABA g3|eaa ged|
c3 edc|edc deg|age dBe|ABA A2:|
f|g3 gea|age edB|ABA g3|eaa gef|
g3 gea|age efg|age dBe|1]ABA A2:|2]ABA A3:|
c2 c d2 d|ecA AGE|c2 c d2 d|ecA A3|
c2 c d2 d|e2 e gab|age dBe|ABA A2:|
